X:239
M:4/4
L:1/4
K:F
c | d c B A | A2 G A | B2 c2 | A3 c | d c B A | A2 G A | B2 c2 | A3 A | G c =B d | (c3/2 d/) e f | e2 d2 | c3 c | f e/d/ c c | d2 c !sintro!B | (A B2) G | F3 !eintro!|]
